**harmony	**harte	**kern	**silbe	**rhyme	**timestamp	**phrase
*M4/4	*M4/4	*ICvox	*	*	*	*
*	*	*VRlead	*	*	*	*
*	*	*Hstimme	*	*	*	*
*D:	*D:	*D:	*	*	*	*
*	*	*M4/4	*	*	*	*
*	*	*clefG2	*	*	*	*
1r;	1r	r;	.	.	0	.
=1	=1	=1	=1	=1	=1	=1
*>Letter>A	*>Letter>A	*>Letter>A	*>Letter>A	*>Letter>A	*>Letter>A	*>Letter>A
*>Label>Intro	*>Label>Intro	*>Label>Intro	*>Label>Intro	*>Label>Intro	*>Label>Intro	*>Label>Intro
1DM	D:maj	1r	.	.	0.279	newline
=2	=2	=2	=2	=2	=2	=2
2B-M	B-:maj	1r	.	.	2.043	.
2CM	C:maj	.	.	.	2.926	.
=3	=3	=3	=3	=3	=3	=3
1DM	D:maj	1r	.	.	3.808	.
=4	=4	=4	=4	=4	=4	=4
2B-M	B-:maj	1r	.	.	5.573	.
2CM	C:maj	.	.	.	6.455	.
=5	=5	=5	=5	=5	=5	=5
1DM	D:maj	1r	.	.	7.338	.
=6	=6	=6	=6	=6	=6	=6
2B-M	B-:maj	1r	.	.	9.102	.
2CM	C:maj	.	.	.	9.985	.
=7	=7	=7	=7	=7	=7	=7
1DM	D:maj	1r	.	.	10.867	newline
=8	=8	=8	=8	=8	=8	=8
1DM	D:maj	2r	.	.	12.608	.
.	.	4.r	.	.	.	.
.	.	8d	We	.	.	.
=9	=9	=9	=9	=9	=9	=9
*>Letter>B	*>Letter>B	*>Letter>B	*>Letter>B	*>Letter>B	*>Letter>B	*>Letter>B
*>Label>Verse	*>Label>Verse	*>Label>Verse	*>Label>Verse	*>Label>Verse	*>Label>Verse	*>Label>Verse
1DM	D:maj	8f#	rent-	.	14.348	newline
.	.	4f#	-ed	.	.	.
.	.	8f#	truck	.	.	.
.	.	4r	.	.	.	.
.	.	8f#	and	.	.	.
.	.	8d	a	.	.	.
=10	=10	=10	=10	=10	=10	=10
1DM	D:maj	8f#	se-	.	16.077	.
.	.	8f#	-mi	.	.	.
.	.	8d	to	.	.	.
.	.	4.f#	go.	A	.	.
.	.	4r	.	.	.	.
=11	=11	=11	=11	=11	=11	=11
1CM	C:maj	8f#	Trav-	.	17.806	.
.	.	8d	-el	.	.	.
.	.	8f#	down	.	.	.
.	.	8d	the	.	.	.
.	.	4f#	long	.	.	.
.	.	8f#	and	.	.	.
.	.	8d	the	.	.	.
=12	=12	=12	=12	=12	=12	=12
1CM	C:maj	8f#	wind-	.	19.535	.
.	.	4f#	-ing	.	.	.
.	.	4.f#	road.	A	.	.
.	.	4r	.	.	.	.
=13	=13	=13	=13	=13	=13	=13
1B-M	B-:maj	8f	Look	.	21.263	.
.	.	8f	on	.	.	.
.	.	8d	the	.	.	.
.	.	8f	map.	.	.	.
.	.	8r	.	.	.	.
.	.	8f	I	.	.	.
.	.	8f	think	.	.	.
.	.	8d	we've	.	.	.
=14	=14	=14	=14	=14	=14	=14
1B-M	B-:maj	8f	been	.	22.992	.
.	.	8f	there	.	.	.
.	.	8d	be-	.	.	.
.	.	4.f	-fore.	A	.	.
.	.	4r	.	.	.	.
=15	=15	=15	=15	=15	=15	=15
1AM	A:sus4	8f	Close	.	24.721	.
.	.	8f	up	.	.	.
.	.	8d	the	.	.	.
.	.	4f	doors;	A	.	.
.	.	8r	.	.	.	.
.	.	4f	Let's	.	.	.
=16	=16	=16	=16	=16	=16	=16
1AM	A:maj	8f	roll	.	26.449	.
.	.	4f	once	.	.	.
.	.	4.f	more.	A	.	.
.	.	4r	.	.	.	.
=17	=17	=17	=17	=17	=17	=17
1DM	D:maj	8f#	Cop's	.	28.178	.
.	.	8d	on	.	.	.
.	.	8d	the	.	.	.
.	.	8f#	corn-	.	.	.
.	.	8f#	-er.	.	.	.
.	.	8r	.	.	.	.
.	.	8f#	look	.	.	.
.	.	8d	he's	.	.	.
=18	=18	=18	=18	=18	=18	=18
1DM	D:maj	8f#	start-	.	29.907	.
.	.	8f#	-ing	.	.	.
.	.	8d	to	.	.	.
.	.	4.f#	write.	B	.	.
.	.	4r	.	.	.	.
=19	=19	=19	=19	=19	=19	=19
1CM	C:maj	8a	I	.	31.636	.
.	.	8a	don't	.	.	.
.	.	8a	need	.	.	.
.	.	8a	no	.	.	.
.	.	8a	ti-	.	.	.
.	.	8a	-cket;	.	.	.
.	.	8a	so	.	.	.
.	.	8a	I	.	.	.
=20	=20	=20	=20	=20	=20	=20
1CM	C:maj	8a	screamed	.	33.364	.
.	.	8a	out	.	.	.
.	.	8b	of	.	.	.
.	.	4.f#	sight	B	.	.
.	.	4r	.	.	.	.
=21	=21	=21	=21	=21	=21	=21
1B-M	B-:maj	8f	Drove	.	35.093	.
.	.	4f	so	.	.	.
.	.	8f	fast	.	.	.
.	.	4r	.	.	.	.
.	.	8f	that	.	.	.
.	.	8d	my	.	.	.
=22	=22	=22	=22	=22	=22	=22
1B-M	B-:maj	8f	eyes	.	36.822	.
.	.	4f	can't	.	.	.
.	.	4.f	see	C	.	.
.	.	4r	.	.	.	.
=23	=23	=23	=23	=23	=23	=23
1AM	A:sus4	8f	Look	.	38.55	.
.	.	8f	in	.	.	.
.	.	8d	the	.	.	.
.	.	8.f	mirror.	.	.	.
.	.	16d	Is	.	.	.
.	.	8d	he	.	.	.
.	.	4A	still	.	.	.
=24	=24	=24	=24	=24	=24	=24
1AM	A:maj	8f	foll-	.	40.279	.
.	.	8f	-ow-	.	.	.
.	.	8d	-ing	.	.	.
.	.	8f	me?.	C	.	.
.	.	8r	.	.	.	.
.	.	8a	Let	.	.	.
.	.	8a	it	.	.	.
.	.	[8a	roll	A	.	.
=25	=25	=25	=25	=25	=25	=25
*>Letter>C	*>Letter>C	*>Letter>C	*>Letter>C	*>Letter>C	*>Letter>C	*>Letter>C
*>Label>Chorus	*>Label>Chorus	*>Label>Chorus	*>Label>Chorus	*>Label>Chorus	*>Label>Chorus	*>Label>Chorus
1DM	D:maj	4a]	_	.	42.008	newline
.	.	4r	.	.	.	.
.	.	2r	.	.	.	.
=26	=26	=26	=26	=26	=26	=26
1GM	G:maj	2r	.	.	43.746	.
.	.	8r	.	.	.	.
.	.	8a	down	.	.	.
.	.	8a	the	.	.	.
.	.	[8a	high-	.	.	.
=27	=27	=27	=27	=27	=27	=27
1DM	D:maj	8a]	_	.	45.484	.
.	.	8f#	-way!.	.	.	.
.	.	4r	.	.	.	.
.	.	2r	.	.	.	.
=28	=28	=28	=28	=28	=28	=28
1GM	G:maj	2r	.	.	47.223	.
.	.	8r	.	.	.	.
.	.	8a	Let	.	.	.
.	.	8a	it	.	.	.
.	.	[8a	roll	A	.	.
=29	=29	=29	=29	=29	=29	=29
1DM	D:maj	4a]	_	.	48.961	.
.	.	4r	.	.	.	.
.	.	2r	.	.	.	.
=30	=30	=30	=30	=30	=30	=30
1GM	G:maj	2r	.	.	50.699	.
.	.	8r	.	.	.	.
.	.	8a	down	.	.	.
.	.	8a	the	.	.	.
.	.	[8a	high-	.	.	.
=31	=31	=31	=31	=31	=31	=31
1DM	D:maj	8a]	_	.	52.437	.
.	.	8f#	-way!.	.	.	.
.	.	4r	.	.	.	.
.	.	4.r	.	.	.	.
.	.	[8a	Go!.	A	.	.
=32	=32	=32	=32	=32	=32	=32
2B-M	B-:maj	4a]	_	.	54.175	.
.	.	8r	.	.	.	.
.	.	4.a	Go!.	A	.	.
2CM	C:maj	.	.	.	55.045	.
.	.	4r	.	.	.	.
=33	=33	=33	=33	=33	=33	=33
*>Letter>A	*>Letter>A	*>Letter>A	*>Letter>A	*>Letter>A	*>Letter>A	*>Letter>A
*>Label>Interlude	*>Label>Interlude	*>Label>Interlude	*>Label>Interlude	*>Label>Interlude	*>Label>Interlude	*>Label>Interlude
1DM	D:maj	1r	.	.	55.914	newline
=34	=34	=34	=34	=34	=34	=34
1DM	D:maj	1r	.	.	57.625	.
=35	=35	=35	=35	=35	=35	=35
1DM	D:maj	1r	.	.	59.337	.
=36	=36	=36	=36	=36	=36	=36
1DM	D:maj	1r	.	.	61.048	.
=37	=37	=37	=37	=37	=37	=37
*>Letter>B	*>Letter>B	*>Letter>B	*>Letter>B	*>Letter>B	*>Letter>B	*>Letter>B
*>Label>Verse	*>Label>Verse	*>Label>Verse	*>Label>Verse	*>Label>Verse	*>Label>Verse	*>Label>Verse
1DM	D:maj	8f#	Look	.	62.76	newline
.	.	8f#	at	.	.	.
.	.	8f#	the	.	.	.
.	.	4f#	sign.	.	.	.
.	.	8r	.	.	.	.
.	.	8r	.	.	.	.
.	.	8f#	We're	.	.	.
=38	=38	=38	=38	=38	=38	=38
1DM	D:maj	8f#	in	.	64.488	.
.	.	8d	the	.	.	.
.	.	4f#	wrong	.	.	.
.	.	4f#	place.	D	.	.
.	.	4r	.	.	.	.
=39	=39	=39	=39	=39	=39	=39
1CM	C:maj	8f#	Move	.	66.216	.
.	.	4f#	out	.	.	.
.	.	4f#	boys;	.	.	.
.	.	8A	and	.	.	.
.	.	8A	let's	.	.	.
.	.	8d	get	.	.	.
=40	=40	=40	=40	=40	=40	=40
1CM	C:maj	8d	read-	.	67.944	.
.	.	8d	-y	.	.	.
.	.	8d	to	.	.	.
.	.	4.f#	race.	D	.	.
.	.	4r	.	.	.	.
=41	=41	=41	=41	=41	=41	=41
1B-M	B-:maj	8f	Four	.	69.672	.
.	.	8f	fif-	.	.	.
.	.	8d	-ty	.	.	.
.	.	4f	four's	A	.	.
.	.	8r	.	.	.	.
.	.	8f	com-	.	.	.
.	.	8d	-ing	.	.	.
=42	=42	=42	=42	=42	=42	=42
1B-M	B-:maj	8f	ov-	.	71.4	.
.	.	8f	-er	.	.	.
.	.	8d	the	.	.	.
.	.	4.f	hill.	E	.	.
.	.	8r	.	.	.	.
.	.	8d	The	.	.	.
=43	=43	=43	=43	=43	=43	=43
1AM	A:sus4	8f	man	.	73.128	.
.	.	8f	on	.	.	.
.	.	8d	pa-	.	.	.
.	.	4f	-trol	A	.	.
.	.	8r	.	.	.	.
.	.	8d	gon-	.	.	.
.	.	8d	-na	.	.	.
=44	=44	=44	=44	=44	=44	=44
1AM	A:maj	8f	give	.	74.856	.
.	.	8f	us	.	.	.
.	.	8d	a	.	.	.
.	.	4.f	bill.	E	.	.
.	.	4r	.	.	.	.
=45	=45	=45	=45	=45	=45	=45
1DM	D:maj	4f#	Time's	.	76.584	.
.	.	4f#	real	.	.	.
.	.	8f#	short.	.	.	.
.	.	8f#	You	.	.	.
.	.	8f#	know	.	.	.
.	.	8d	the	.	.	.
=46	=46	=46	=46	=46	=46	=46
1DM	D:maj	8f#	dis-	.	78.311	.
.	.	8f#	-tance	.	.	.
.	.	8d	is	.	.	.
.	.	4.f#	long.	F	.	.
.	.	8r	.	.	.	.
.	.	8a	I'd	.	.	.
=47	=47	=47	=47	=47	=47	=47
1CM	C:maj	8a	like	.	80.039	.
.	.	8a	to	.	.	.
.	.	8a	have	.	.	.
.	.	8a	a	.	.	.
.	.	4a	jet;	.	.	.
.	.	8a	but	.	.	.
.	.	8a	it's	.	.	.
=48	=48	=48	=48	=48	=48	=48
1CM	C:maj	8a	not	.	81.767	.
.	.	8a	in	.	.	.
.	.	8b	the	.	.	.
.	.	4.f#	song.	F	.	.
.	.	4r	.	.	.	.
=49	=49	=49	=49	=49	=49	=49
1B-M	B-:maj	8f	Climb	.	83.495	.
.	.	8f	back	.	.	.
.	.	8f	in	.	.	.
.	.	8d	the	.	.	.
.	.	4f	cab,	.	.	.
.	.	8f	cross	.	.	.
.	.	8d	your	.	.	.
=50	=50	=50	=50	=50	=50	=50
1B-M	B-:maj	8f	fing-	.	85.223	.
.	.	8f	-ers	.	.	.
.	.	8d	for	.	.	.
.	.	8f	luck.	G	.	.
.	.	4.r	.	.	.	.
.	.	8d	We	.	.	.
=51	=51	=51	=51	=51	=51	=51
1AM	A:sus4	8f	got-	.	86.951	.
.	.	8f	-ta	.	.	.
.	.	4f	keep	.	.	.
.	.	8f	mov-	.	.	.
.	.	8d	-ing|	.	.	.
.	.	8f	if	.	.	.
.	.	8f	we're	.	.	.
=52	=52	=52	=52	=52	=52	=52
1AM	A:maj	8f	gon-	.	88.679	.
.	.	8f	-nga	.	.	.
.	.	8f	make	.	.	.
.	.	8d	a	.	.	.
.	.	8f	buck.	G	.	.
.	.	8a	Let	.	.	.
.	.	8a	it	.	.	.
.	.	[8a	roll	A	.	.
=53	=53	=53	=53	=53	=53	=53
*>Letter>C	*>Letter>C	*>Letter>C	*>Letter>C	*>Letter>C	*>Letter>C	*>Letter>C
*>Label>Chorus	*>Label>Chorus	*>Label>Chorus	*>Label>Chorus	*>Label>Chorus	*>Label>Chorus	*>Label>Chorus
1DM	D:maj	4a]	_	.	90.407	newline
.	.	4r	.	.	.	.
.	.	2r	.	.	.	.
=54	=54	=54	=54	=54	=54	=54
1GM	G:maj	2r	.	.	92.131	.
.	.	8r	.	.	.	.
.	.	8a	down	.	.	.
.	.	8a	the	.	.	.
.	.	[8a	high-	.	.	.
=55	=55	=55	=55	=55	=55	=55
1DM	D:maj	8a]	_	.	93.854	.
.	.	8f#	-way!.	.	.	.
.	.	4r	.	.	.	.
.	.	2r	.	.	.	.
=56	=56	=56	=56	=56	=56	=56
1GM	G:maj	2r	.	.	95.578	.
.	.	8r	.	.	.	.
.	.	8a	Let	.	.	.
.	.	8a	it	.	.	.
.	.	[8a	roll	A	.	.
=57	=57	=57	=57	=57	=57	=57
1DM	D:maj	8a]	_	.	97.301	.
.	.	4d	_	.	.	.
.	.	8d	_	.	.	.
.	.	2r	.	.	.	.
=58	=58	=58	=58	=58	=58	=58
1GM	G:maj	2r	.	.	99.025	.
.	.	8r	.	.	.	.
.	.	8a	down	.	.	.
.	.	8a	the	.	.	.
.	.	[8a	high-	.	.	.
=59	=59	=59	=59	=59	=59	=59
1DM	D:maj	8a]	_	.	100.749	.
.	.	8f#	-way!.	.	.	.
.	.	4r	.	.	.	.
.	.	4.r	.	.	.	.
.	.	[8a	Go!.	A	.	.
=60	=60	=60	=60	=60	=60	=60
2B-M	B-:maj	4a]	_	.	102.472	.
.	.	2.r	.	.	.	.
2CM	C:maj	.	.	.	103.334	.
=61	=61	=61	=61	=61	=61	=61
*>Letter>A	*>Letter>A	*>Letter>A	*>Letter>A	*>Letter>A	*>Letter>A	*>Letter>A
*>Label>Interlude	*>Label>Interlude	*>Label>Interlude	*>Label>Interlude	*>Label>Interlude	*>Label>Interlude	*>Label>Interlude
1DM	D:maj	1r	.	.	104.196	newline
=62	=62	=62	=62	=62	=62	=62
2B-M	B-:maj	1r	.	.	105.883	.
2CM	C:maj	.	.	.	106.726	.
=63	=63	=63	=63	=63	=63	=63
1DM	D:maj	1r	.	.	107.569	.
=64	=64	=64	=64	=64	=64	=64
2B-M	B-:maj	1r	.	.	109.256	.
2CM	C:maj	.	.	.	110.099	.
=65	=65	=65	=65	=65	=65	=65
1DM	D:maj	1r	.	.	110.942	.
=66	=66	=66	=66	=66	=66	=66
2B-M	B-:maj	1r	.	.	112.629	.
2CM	C:maj	.	.	.	113.472	.
=67	=67	=67	=67	=67	=67	=67
*>Letter>B	*>Letter>B	*>Letter>B	*>Letter>B	*>Letter>B	*>Letter>B	*>Letter>B
*>Label>Solo	*>Label>Solo	*>Label>Solo	*>Label>Solo	*>Label>Solo	*>Label>Solo	*>Label>Solo
1DM	D:maj	1r	.	.	114.316	newline
=68	=68	=68	=68	=68	=68	=68
1DM	D:maj	1r	.	.	116.023	.
=69	=69	=69	=69	=69	=69	=69
1CM	C:maj	1r	.	.	117.73	.
=70	=70	=70	=70	=70	=70	=70
1CM	C:maj	1r	.	.	119.437	.
=71	=71	=71	=71	=71	=71	=71
1B-M	B-:maj	1r	.	.	121.144	.
=72	=72	=72	=72	=72	=72	=72
1B-M	B-:maj	1r	.	.	122.852	.
=73	=73	=73	=73	=73	=73	=73
1AM	A:sus4	1r	.	.	124.559	.
=74	=74	=74	=74	=74	=74	=74
1AM	A:maj	1r	.	.	126.266	.
=75	=75	=75	=75	=75	=75	=75
1DM	D:maj	1r	.	.	127.973	.
=76	=76	=76	=76	=76	=76	=76
1DM	D:maj	1r	.	.	129.68	.
=77	=77	=77	=77	=77	=77	=77
1CM	C:maj	1r	.	.	131.387	.
=78	=78	=78	=78	=78	=78	=78
1CM	C:maj	1r	.	.	133.094	.
=79	=79	=79	=79	=79	=79	=79
1B-M	B-:maj	1r	.	.	134.802	.
=80	=80	=80	=80	=80	=80	=80
1B-M	B-:maj	1r	.	.	136.509	.
=81	=81	=81	=81	=81	=81	=81
1AM	A:sus4	1r	.	.	138.216	.
=82	=82	=82	=82	=82	=82	=82
1AM	A:maj	1r	.	.	139.923	.
=83	=83	=83	=83	=83	=83	=83
*>Letter>B	*>Letter>B	*>Letter>B	*>Letter>B	*>Letter>B	*>Letter>B	*>Letter>B
*>Label>Solo	*>Label>Solo	*>Label>Solo	*>Label>Solo	*>Label>Solo	*>Label>Solo	*>Label>Solo
1DM	D:maj	1r	.	.	141.63	newline
=84	=84	=84	=84	=84	=84	=84
1DM	D:maj	1r	.	.	143.321	.
=85	=85	=85	=85	=85	=85	=85
1CM	C:maj	1r	.	.	145.011	.
=86	=86	=86	=86	=86	=86	=86
1CM	C:maj	1r	.	.	146.701	.
=87	=87	=87	=87	=87	=87	=87
1B-M	B-:maj	1r	.	.	148.392	.
=88	=88	=88	=88	=88	=88	=88
1B-M	B-:maj	1r	.	.	150.082	.
=89	=89	=89	=89	=89	=89	=89
1AM	A:sus4	1r	.	.	151.773	.
=90	=90	=90	=90	=90	=90	=90
1AM	A:maj	1r	.	.	153.463	.
=91	=91	=91	=91	=91	=91	=91
1DM	D:maj	1r	.	.	155.153	.
=92	=92	=92	=92	=92	=92	=92
1DM	D:maj	1r	.	.	156.844	.
=93	=93	=93	=93	=93	=93	=93
1CM	C:maj	1r	.	.	158.534	.
=94	=94	=94	=94	=94	=94	=94
1CM	C:maj	1r	.	.	160.225	.
=95	=95	=95	=95	=95	=95	=95
1B-M	B-:maj	1r	.	.	161.915	.
=96	=96	=96	=96	=96	=96	=96
1B-M	B-:maj	1r	.	.	163.606	.
=97	=97	=97	=97	=97	=97	=97
1AM	A:sus4	1r	.	.	165.296	.
=98	=98	=98	=98	=98	=98	=98
1AM	A:maj	2r	.	.	166.986	.
.	.	8r	.	.	.	.
.	.	8a	Let	.	.	.
.	.	8a	it	.	.	.
.	.	[8a	roll.	.	.	.
=99	=99	=99	=99	=99	=99	=99
*>Letter>B	*>Letter>B	*>Letter>B	*>Letter>B	*>Letter>B	*>Letter>B	*>Letter>B
*>Label>Solo	*>Label>Solo	*>Label>Solo	*>Label>Solo	*>Label>Solo	*>Label>Solo	*>Label>Solo
1DM	D:maj	4a]	_	.	168.677	newline
.	.	4r	.	.	.	.
.	.	2r	.	.	.	.
=100	=100	=100	=100	=100	=100	=100
1DM	D:maj	2r	.	.	170.393	.
.	.	8r	.	.	.	.
.	.	8a	Let	.	.	.
.	.	8a	it	.	.	.
.	.	[8a	roll.	A	.	.
=101	=101	=101	=101	=101	=101	=101
1CM	C:maj	4a]	_	.	172.109	.
.	.	4r	.	.	.	.
.	.	2r	.	.	.	.
=102	=102	=102	=102	=102	=102	=102
1CM	C:maj	2r	.	.	173.825	.
.	.	8r	.	.	.	.
.	.	8a	Let	.	.	.
.	.	8a	it	.	.	.
.	.	[8a	roll.	A	.	.
=103	=103	=103	=103	=103	=103	=103
1B-M	B-:maj	4a]	_	.	175.541	.
.	.	4r	.	.	.	.
.	.	2r	.	.	.	.
=104	=104	=104	=104	=104	=104	=104
1B-M	B-:maj	2r	.	.	177.257	.
.	.	8r	.	.	.	.
.	.	8a	Let	.	.	.
.	.	8a	it	.	.	.
.	.	[8a	roll.	A	.	.
=105	=105	=105	=105	=105	=105	=105
1AM	A:sus4	4a]	_	.	178.973	.
.	.	4r	.	.	.	.
.	.	2r	.	.	.	.
=106	=106	=106	=106	=106	=106	=106
1AM	A:maj	2r	.	.	180.689	.
.	.	8r	.	.	.	.
.	.	8f#	Let	.	.	.
.	.	8g	it	.	.	.
.	.	[8a	roll	A	.	.
=107	=107	=107	=107	=107	=107	=107
*>Letter>C	*>Letter>C	*>Letter>C	*>Letter>C	*>Letter>C	*>Letter>C	*>Letter>C
*>Label>Chorus	*>Label>Chorus	*>Label>Chorus	*>Label>Chorus	*>Label>Chorus	*>Label>Chorus	*>Label>Chorus
1DM	D:maj	4a]	_	.	182.405	newline
.	.	4r	.	.	.	.
.	.	2r	.	.	.	.
=108	=108	=108	=108	=108	=108	=108
1GM	G:maj	2r	.	.	184.107	.
.	.	8r	.	.	.	.
.	.	8a	down	.	.	.
.	.	8a	the	.	.	.
.	.	[8a	high-	.	.	.
=109	=109	=109	=109	=109	=109	=109
1DM	D:maj	8a]	_	.	185.809	.
.	.	8f#	-way!.	.	.	.
.	.	4r	.	.	.	.
.	.	2r	.	.	.	.
=110	=110	=110	=110	=110	=110	=110
1GM	G:maj	2r	.	.	187.512	.
.	.	8r	.	.	.	.
.	.	8f#	Let	.	.	.
.	.	8g	it	.	.	.
.	.	[8a	roll	A	.	.
=111	=111	=111	=111	=111	=111	=111
1DM	D:maj	8a]	_	.	189.214	.
.	.	8f#	_	.	.	.
.	.	4r	.	.	.	.
.	.	2r	.	.	.	.
=112	=112	=112	=112	=112	=112	=112
1GM	G:maj	2r	.	.	190.917	.
.	.	8r	.	.	.	.
.	.	8a	down	.	.	.
.	.	8a	the	.	.	.
.	.	[8a	high-	.	.	.
=113	=113	=113	=113	=113	=113	=113
1DM	D:maj	8a]	_	.	192.619	.
.	.	8f#	-way!.	.	.	.
.	.	4r	.	.	.	.
.	.	4.r	.	.	.	.
.	.	[8a	Go!.	A	.	.
=114	=114	=114	=114	=114	=114	=114
2B-M	B-:maj	4a]	_	.	194.321	.
.	.	8r	.	.	.	.
.	.	[4a	Go!.	A	.	.
2CM	C:maj	.	.	.	195.172	.
.	.	16a]	_	.	.	.
.	.	16f#	let	.	.	.
.	.	8g	it	.	.	.
.	.	[8a	roll	A	.	.
=115	=115	=115	=115	=115	=115	=115
*>Letter>C	*>Letter>C	*>Letter>C	*>Letter>C	*>Letter>C	*>Letter>C	*>Letter>C
*>Label>Chorus	*>Label>Chorus	*>Label>Chorus	*>Label>Chorus	*>Label>Chorus	*>Label>Chorus	*>Label>Chorus
1DM	D:maj	4a]	_	.	196.024	newline
.	.	4r	.	.	.	.
.	.	2r	.	.	.	.
=116	=116	=116	=116	=116	=116	=116
1GM	G:maj	2r	.	.	197.717	.
.	.	8r	.	.	.	.
.	.	8a	down	.	.	.
.	.	8a	the	.	.	.
.	.	[8a	high-	.	.	.
=117	=117	=117	=117	=117	=117	=117
1DM	D:maj	8a]	_	.	199.409	.
.	.	8f#	-way!.	.	.	.
.	.	4r	.	.	.	.
.	.	2r	.	.	.	.
=118	=118	=118	=118	=118	=118	=118
1GM	G:maj	2r	.	.	201.102	.
.	.	8r	.	.	.	.
.	.	8f#	Let	.	.	.
.	.	8g	it	.	.	.
.	.	[8a	roll	A	.	.
=119	=119	=119	=119	=119	=119	=119
1DM	D:maj	8a]	_	.	202.795	.
.	.	8f#	_	.	.	.
.	.	4r	.	.	.	.
.	.	2r	.	.	.	.
=120	=120	=120	=120	=120	=120	=120
1GM	G:maj	2r	.	.	204.488	.
.	.	8r	.	.	.	.
.	.	8a	down	.	.	.
.	.	8a	the	.	.	.
.	.	[8a	high-	.	.	.
=121	=121	=121	=121	=121	=121	=121
1DM	D:maj	8a]	_	.	206.181	.
.	.	8f#	-way!.	.	.	.
.	.	4r	.	.	.	.
.	.	4.r	.	.	.	.
.	.	[8a	Go!.	A	.	.
=122	=122	=122	=122	=122	=122	=122
2B-M	B-:maj	4a]	_	.	207.874	.
.	.	8r	.	.	.	.
.	.	4.a	Go!.	A	.	.
2CM	C:maj	.	.	.	208.72	.
.	.	8r	.	.	.	.
.	.	[8a	Go!.	A	.	.
=123	=123	=123	=123	=123	=123	=123
*>Letter>C2	*>Letter>C2	*>Letter>C2	*>Letter>C2	*>Letter>C2	*>Letter>C2	*>Letter>C2
*>Label>Interlude	*>Label>Interlude	*>Label>Interlude	*>Label>Interlude	*>Label>Interlude	*>Label>Interlude	*>Label>Interlude
1N	N	4a]	_	.	209.566	newline
.	.	4.r	.	.	.	.
.	.	8r	.	.	.	.
.	.	4r	.	.	.	.
=124	=124	=124	=124	=124	=124	=124
1N	N	1r	.	.	211.305	.
=125	=125	=125	=125	=125	=125	=125
1N	N	1r	.	.	213.043	.
=126	=126	=126	=126	=126	=126	=126
1N	N	2r	.	.	214.781	.
.	.	8r	.	.	.	.
.	.	8a	Let	.	.	.
.	.	8a	it	.	.	.
.	.	[8a	roll	A	.	.
=127	=127	=127	=127	=127	=127	=127
*>Letter>C	*>Letter>C	*>Letter>C	*>Letter>C	*>Letter>C	*>Letter>C	*>Letter>C
*>Label>Outro	*>Label>Outro	*>Label>Outro	*>Label>Outro	*>Label>Outro	*>Label>Outro	*>Label>Outro
1DM	D:maj	4a]	_	.	216.519	newline
.	.	4r	.	.	.	.
.	.	2r	.	.	.	.
=128	=128	=128	=128	=128	=128	=128
1GM	G:maj	2r	.	.	218.228	.
.	.	8r	.	.	.	.
.	.	8a	down	.	.	.
.	.	8a	the	.	.	.
.	.	[8a	high-	.	.	.
=129	=129	=129	=129	=129	=129	=129
1DM	D:maj	8a]	_	.	219.938	.
.	.	8f#	-way!.	.	.	.
.	.	4r	.	.	.	.
.	.	2r	.	.	.	.
=130	=130	=130	=130	=130	=130	=130
1GM	G:maj	2r	.	.	221.647	.
.	.	8r	.	.	.	.
.	.	8f#	Let	.	.	.
.	.	8g	it	.	.	.
.	.	[8a	roll	A	.	.
=131	=131	=131	=131	=131	=131	=131
1DM	D:maj	8a]	_	.	223.356	.
.	.	16f#	_	.	.	.
.	.	16e	_	.	.	.
.	.	8d	_	.	.	.
.	.	8r	.	.	.	.
.	.	2r	.	.	.	.
=132	=132	=132	=132	=132	=132	=132
1GM	G:maj	2r	.	.	225.065	.
.	.	8r	.	.	.	.
.	.	8a	down	.	.	.
.	.	8a	the	.	.	.
.	.	[8a	high-	.	.	.
=133	=133	=133	=133	=133	=133	=133
1DM	D:maj	8a]	_	.	226.774	.
.	.	4f#	-way!.	.	.	.
.	.	4f#	_	.	.	.
.	.	4d	_	.	.	.
.	.	[8a	Go!.	A	.	.
=134	=134	=134	=134	=134	=134	=134
2B-M	B-:maj	4a]	_	.	228.483	.
.	.	8r	.	.	.	.
.	.	4.a	Go!.	A	.	.
2CM	C:maj	.	.	.	229.338	.
.	.	8r	.	.	.	.
.	.	[8a	Go!.	A	.	.
=135	=135	=135	=135	=135	=135	=135
1DM	D:maj	4a]	_	.	230.192	newline
.	.	2.r	.	.	.	.
1r;	1r	r;	.	.	236.066	.
1r;	1r	r;	.	.	240.248	.
*-	*-	*-	*-	*-	*-	*-
!!!BillboardChartDate: 1975/01/25
!!!BillboardPeak: 14
!!!BillboardWeeksOnChart: 11
!!!COC: Bachman-Turner Overdrive
!!!ENC: Nathaniel Condit-Schultz
!!!EST: Awating manual error checking and editing.
!!!OTL: Roll On Down The Highway
!!!RDF**chordsym: original McGill chord annotation + (implied pitch class set, with bass pitch in first position)
!!!RDF**harmony: **recip + pitch class of root + harmonic quality
!!!RDF**leadinstrument: original McGill primary instrumentation annotation
!!!RDF**phrase: newline = linebreak in original McGill transcription
!!!RDF**timestamp: McGill audio timestamp in seconds
!!!RDT: 2017/01/12/
!!!SampleActualRank: 55
!!!SampleID#: 0351
!!!SampleTargetRank: 55
!!!MBID: d6fff18a-d604-4542-996e-a40f12a51fc3
